!!!COM: Vivaldi, Antonio
**kern	**dynam	**kern	**dynam	**kern	**dynam	**kern	**dynam
*staff5	*staff5	*staff3	*staff3	*staff2	*staff2	*staff1	*staff1
=1-	=1-	=1-	=1-	=1-	=1-	=1-	=1-
*clefF4	*clefF4	*clefF4	*clefF4	*clefG2	*clefG2	*clefG2	*clefG2
*k[b-]	*k[b-]	*k[b-]	*k[b-]	*k[b-]	*k[b-]	*k[b-]	*k[b-]
*M3/2	*M3/2	*M3/2	*M3/2	*M3/2	*M3/2	*M3/2	*M3/2
2E-\	f	2E-\	f	2g/	f	2b-\	.
2E-\	.	2E-\	.	2g/	.	2b-\	.
2E-\	.	2E-\	.	2g/	.	2b-\	.
=2	=2	=2	=2	=2	=2	=2	=2
2D\	.	2D\	.	2f/	.	2b-\	.
2D\	.	2D\	.	2f/	.	2b-\	.
2D\	.	2D\	.	2f/	.	2b-\	.
=3	=3	=3	=3	=3	=3	=3	=3
1.C;	.	1.C;	.	1.e-;	.	1.cc;	.
=4	=4	=4	=4	=4	=4	=4	=4
2BBn/	.	2BBn/	.	2g/	.	2dd\	.
2BB/	.	2BB/	.	2g/	.	2dd\	.
2BB/	.	2BB/	.	2g/	.	2dd\	.
=5	=5	=5	=5	=5	=5	=5	=5
1.C;	.	1.C;	.	1.g;	.	1.ee-;	.
=6	=6	=6	=6	=6	=6	=6	=6
1.r	.	1.r	.	2gg\	.	1.r	.
.	.	.	.	2gg\	.	.	.
.	.	.	.	2gg\	.	.	.
=7	=7	=7	=7	=7	=7	=7	=7
2c\	.	2c\	.	2gg\	.	2aa-\	.
2c\	.	2c\	.	2gg\	.	2aa-\	.
2c\	.	2c\	.	2gg\	.	2aa-\	.
=8	=8	=8	=8	=8	=8	=8	=8
2d\	.	2d\	.	2ff\	.	2aa\	.
2d\	.	2d\	.	2ff\	.	2aa\	.
2d\	.	2d\	.	2ff\	.	2aa\	.
=9	=9	=9	=9	=9	=9	=9	=9
2Bn\	.	2Bn\	.	2ff\	.	2gg\	.
2B\	.	2B\	.	2ff\	.	2gg\	.
2B\	.	2B\	.	2ff\	.	2gg\	.
=10	=10	=10	=10	=10	=10	=10	=10
2c\	.	2c\	.	2ee-\	.	2gg\	.
2c\	.	2c\	.	2ee-\	.	2gg\	.
2c\	.	2c\	.	2ee-\	.	2gg\	.
=11	=11	=11	=11	=11	=11	=11	=11
2A\	.	2A\	.	2cc\	.	2gg\	.
2A\	.	2A\	.	2cc\	.	2gg\	.
2A\	.	2A\	.	2cc\	.	2gg\	.
=12	=12	=12	=12	=12	=12	=12	=12
2A\	.	2A\	.	2dd\	.	2ff\	.
2A\	.	2A\	.	2dd\	.	2ff\	.
2A\	.	2A\	.	2dd\	.	2ff\	.
=13	=13	=13	=13	=13	=13	=13	=13
2A\	.	2A\	.	2dd\	.	2ee\	.
2A\	.	2A\	.	2dd\	.	2ee\	.
2A\	.	2A\	.	2dd\	.	2ee\	.
=14	=14	=14	=14	=14	=14	=14	=14
2A\	.	2A\	.	2ccn\	.	2ee\	.
2A\	.	2A\	.	2cc\	.	2ee\	.
2A\	.	2A\	.	2cc\	.	2ee\	.
=15	=15	=15	=15	=15	=15	=15	=15
2D\	.	2D\	.	2cc\	.	2ff\	.
2D\	.	2D\	.	2cc\	.	2ff\	.
2D\	.	2D\	.	2cc\	.	2ff\	.
=16	=16	=16	=16	=16	=16	=16	=16
2D\	.	2D\	.	2b-\	.	2gg\	.
2D\	.	2D\	.	2b-\	.	2gg\	.
2D\	.	2D\	.	2b-\	.	2gg\	.
=17	=17	=17	=17	=17	=17	=17	=17
2D\	.	2D\	.	2a/	.	2gg\	.
2D\	.	2D\	.	2a/	.	2gg\	.
2D\	.	2D\	.	2a/	.	2gg\	.
=18	=18	=18	=18	=18	=18	=18	=18
2D\	.	2D\	.	2a/	.	2ff\	.
2D\	.	2D\	.	2a/	.	2ff\	.
2D\	.	2D\	.	2a/	.	2ff\	.
=19	=19	=19	=19	=19	=19	=19	=19
2GG/	.	2GG/	.	2g/	.	1gg	.
2BB-/	.	2BB-/	.	2g/	.	.	.
2BB-/	p	2BB-/	p	2g/	p	2dd\	p
=20	=20	=20	=20	=20	=20	=20	=20
2C/	.	2C/	.	2g/	.	2a/	.
2C/	.	2C/	.	2g/	.	2a/	.
2C/	.	2C/	.	2g/	.	2a/	.
=21	=21	=21	=21	=21	=21	=21	=21
2C/	.	2C/	.	2g/	.	2b-\	.
2C/	.	2C/	.	2g/	.	2b-\	.
2C/	.	2C/	.	2g/	.	2b-\	.
=22	=22	=22	=22	=22	=22	=22	=22
2D\	.	2D\	.	2g/	.	2a/	.
2D\	.	2D\	.	2g/	.	2a/	.
2D\	.	2D\	.	2g/	.	2a/	.
=23	=23	=23	=23	=23	=23	=23	=23
1.D;	.	1.D;	.	1.f#;	.	1.a;	.
=	=	=	=	=	=	=	=
*-	*-	*-	*-	*-	*-	*-	*-
!!!ENC: Donald Anthony
!!!END: 2004/07//
!!!RWG: not proof-read
